static/images/right-arrow.svg

<svg fill="none" height="19" viewBox="0 0 19 19" width="19" xmlns="http://www.w3.org/2000/svg"><path d="m9.5-.00000042-2.00283 2.00283042 6.08073 6.08074h-13.57790048l.00000013 2.83283h13.57790035l-6.08073 6.0808 2.00283 2.0028 9.5-9.5z" fill="#7e7e93"/></svg>

<svg width="19" height="19" viewBox="0 0 19 19" fill="none" xmlns="http://www.w3.org/2000/svg">
<path d="M9.5 -4.15258e-07L7.49717 2.00283L13.5779 8.08357L-4.77172e-07 8.08357L-3.53344e-07 10.9164L13.5779 10.9164L7.49717 16.9972L9.5 19L19 9.5L9.5 -4.15258e-07Z" fill="#7E7E93"/>
</svg>
